public/resend.svg

<svg xmlns="http://www.w3.org/2000/svg" width="1500" height="489" fill="none"><path fill="#fff" d="M25.41 393.747V97.307h120.693c65.217 0 108.836 38.537 108.836 98.672 0 38.114-19.904 68.605-50.818 83.427l58.441 114.341h-70.299l-49.971-99.519h-53.36v99.519zM141.02 150.242H88.932v91.05h52.089c30.068 0 49.125-17.786 49.125-45.313 0-27.95-19.057-45.737-49.125-45.737M388.86 396.288c-72.416 0-116.035-43.619-116.035-110.953 0-67.758 44.466-111.801 111.8-111.801 65.217 0 109.26 40.655 110.107 104.601 0 6.353-.424 13.552-1.694 20.328H335.077v2.964c1.271 30.915 21.175 49.548 51.242 49.548 24.139 0 41.079-10.587 46.16-30.914h58.865c-6.776 42.348-44.466 76.227-102.484 76.227m-52.512-136.786h98.249C430.362 232.822 412.152 218 385.049 218c-25.833 0-45.313 15.669-48.701 41.502m179.198 61.829h56.747c2.117 19.057 18.633 32.185 47.854 32.185 24.986 0 40.231-8.046 40.231-23.292 0-17.786-14.822-19.057-49.971-23.715-50.819-5.929-90.203-17.363-90.203-62.253 0-43.195 37.69-71.569 93.591-71.145 58.441 0 98.672 25.832 101.636 70.298h-57.17c-1.694-17.363-18.21-27.95-42.349-27.95-23.292 0-38.537 8.47-38.537 22.445 0 16.516 18.633 18.21 49.971 22.021 49.972 5.082 91.473 16.516 91.473 65.641 0 43.196-40.654 70.722-99.096 70.722-60.558 0-101.636-28.373-104.177-74.957m342.293 74.957c-72.416 0-116.036-43.619-116.036-110.953 0-67.758 44.467-111.801 111.801-111.801 65.217 0 109.26 40.655 110.107 104.601 0 6.353-.424 13.552-1.694 20.328H804.056v2.964c1.27 30.915 21.174 49.548 51.242 49.548 24.139 0 41.078-10.587 46.16-30.914h58.865c-6.776 42.348-44.466 76.227-102.484 76.227m-52.513-136.786h98.249C899.341 232.822 881.131 218 854.027 218c-25.832 0-45.313 15.669-48.701 41.502m315.944-85.968c47.01 0 87.24 24.986 87.24 99.52v120.693h-59.71V278.982c0-36.843-13.98-56.323-44.05-56.323-30.91 0-48.7 22.021-48.7 59.711v111.377h-59.708V176.075h52.088l5.51 27.103c13.97-16.939 33.88-29.644 67.33-29.644m282 29.644V97.307h59.71v296.44h-52.09l-5.93-30.067c-14.4 18.633-35.57 32.608-66.91 32.608-58.44 0-101.21-42.772-101.21-111.8 0-67.335 42.77-110.954 100.79-110.954 30.06 0 51.66 11.858 65.64 29.644m-52.09 144.409c32.61 0 52.93-25.409 52.93-62.252 0-37.267-20.32-63.1-52.93-63.1s-53.36 25.409-53.36 62.676 20.75 62.676 53.36 62.676"/></svg>

<svg width="1500" height="489" viewBox="0 0 1500 489" fill="none" xmlns="http://www.w3.org/2000/svg">
<path d="M25.4092 393.747V97.3065H146.103C211.32 97.3065 254.939 135.844 254.939 195.979C254.939 234.093 235.035 264.584 204.121 279.406L262.562 393.747H192.263L142.292 294.228H88.9323V393.747H25.4092ZM141.021 150.242H88.9323V241.292H141.021C171.089 241.292 190.146 223.506 190.146 195.979C190.146 168.029 171.089 150.242 141.021 150.242ZM388.86 396.288C316.444 396.288 272.825 352.669 272.825 285.335C272.825 217.577 317.291 173.534 384.625 173.534C449.842 173.534 493.885 214.189 494.732 278.135C494.732 284.488 494.308 291.687 493.038 298.463H335.077V301.427C336.348 332.342 356.252 350.975 386.319 350.975C410.458 350.975 427.398 340.388 432.479 320.061H491.344C484.568 362.409 446.878 396.288 388.86 396.288ZM336.348 259.502H434.597C430.362 232.822 412.152 218 385.049 218C359.216 218 339.736 233.669 336.348 259.502ZM515.546 321.331H572.293C574.41 340.388 590.926 353.516 620.147 353.516C645.133 353.516 660.378 345.47 660.378 330.224C660.378 312.438 645.556 311.167 610.407 306.509C559.588 300.58 520.204 289.146 520.204 244.256C520.204 201.061 557.894 172.687 613.795 173.111C672.236 173.111 712.467 198.943 715.431 243.409H658.261C656.567 226.046 640.051 215.459 615.912 215.459C592.62 215.459 577.375 223.929 577.375 237.904C577.375 254.42 596.008 256.114 627.346 259.925C677.318 265.007 718.819 276.441 718.819 325.566C718.819 368.762 678.165 396.288 619.723 396.288C559.165 396.288 518.087 367.915 515.546 321.331ZM857.839 396.288C785.423 396.288 741.803 352.669 741.803 285.335C741.803 217.577 786.27 173.534 853.604 173.534C918.821 173.534 962.864 214.189 963.711 278.135C963.711 284.488 963.287 291.687 962.017 298.463H804.056V301.427C805.326 332.342 825.23 350.975 855.298 350.975C879.437 350.975 896.376 340.388 901.458 320.061H960.323C953.547 362.409 915.857 396.288 857.839 396.288ZM805.326 259.502H903.575C899.341 232.822 881.131 218 854.027 218C828.195 218 808.714 233.669 805.326 259.502ZM1121.27 173.534C1168.28 173.534 1208.51 198.52 1208.51 273.054V393.747H1148.8V278.982C1148.8 242.139 1134.82 222.659 1104.75 222.659C1073.84 222.659 1056.05 244.68 1056.05 282.37V393.747H996.342V176.075H1048.43L1053.94 203.178C1067.91 186.239 1087.82 173.534 1121.27 173.534ZM1403.27 203.178V97.3065H1462.98V393.747H1410.89L1404.96 363.68C1390.56 382.313 1369.39 396.288 1338.05 396.288C1279.61 396.288 1236.84 353.516 1236.84 284.488C1236.84 217.153 1279.61 173.534 1337.63 173.534C1367.69 173.534 1389.29 185.392 1403.27 203.178ZM1351.18 347.587C1383.79 347.587 1404.11 322.178 1404.11 285.335C1404.11 248.068 1383.79 222.235 1351.18 222.235C1318.57 222.235 1297.82 247.644 1297.82 284.911C1297.82 322.178 1318.57 347.587 1351.18 347.587Z" fill="white"/>
</svg>
